src/icons/svgs/16/arrow-trend-down.svg

<svg width="16" height="16" viewBox="0 0 16 16" fill="none" xmlns="http://www.w3.org/2000/svg">
<path d="M15 11.2C15 11.7225 14.5715 12 14.2222 12H10.3333C9.90337 12 9.55556 11.6418 9.55556 11.2C9.55556 10.7583 9.90337 10.4 10.3333 10.4H12.3446L8.77778 6.7325L6.21597 9.365C6.06528 9.5225 5.86597 9.6 5.66667 9.6C5.46736 9.6 5.26806 9.5225 5.11736 9.365L1.22847 5.365C1.07595 5.21 1 5.005 1 4.8C1 4.343 1.36337 4 1.77778 4C1.97679 4 2.1759 4.07813 2.32757 4.23438L5.66667 7.67L8.22847 5.035C8.37917 4.8775 8.57847 4.8 8.77778 4.8C8.97708 4.8 9.1759 4.87813 9.32757 5.03438L13.4444 9.27V7.2C13.4444 6.75825 13.7923 6.4 14.2222 6.4C14.6522 6.4 15 6.75825 15 7.2V11.2Z" fill="black"/>
</svg>

<svg width="16" height="16" viewBox="0 0 16 16" xmlns="http://www.w3.org/2000/svg">
    <path d="M15 11.2c0 .523-.428.8-.778.8h-3.889a.789.789 0 0 1-.777-.8c0-.442.347-.8.777-.8h2.012L8.778 6.732 6.216 9.366a.756.756 0 0 1-1.099 0l-3.889-4A.803.803 0 0 1 1 4.8c0-.457.363-.8.778-.8.199 0 .398.078.55.234L5.667 7.67l2.561-2.635a.763.763 0 0 1 1.1 0l4.116 4.235V7.2c0-.442.348-.8.778-.8.43 0 .778.358.778.8v4Z"/>
</svg>
